build/svg/cmd/sc_starshapes.star24.svg

<?xml version="1.0" encoding="UTF-8" standalone="no"?>
<svg
   xmlns:dc="http://purl.org/dc/elements/1.1/"
   xmlns:cc="http://creativecommons.org/ns#"
   xmlns:rdf="http://www.w3.org/1999/02/22-rdf-syntax-ns#"
   xmlns:svg="http://www.w3.org/2000/svg"
   xmlns="http://www.w3.org/2000/svg"
   xmlns:sodipodi="http://sodipodi.sourceforge.net/DTD/sodipodi-0.dtd"
   xmlns:inkscape="http://www.inkscape.org/namespaces/inkscape"
   viewBox="0 0 16 16"
   version="1.1"
   id="svg4"
   sodipodi:docname="sc_starshapes.star24.svg"
   inkscape:version="0.92.4 (5da689c313, 2019-01-14)"
   inkscape:export-filename="/home/jupiter007/Libreoffice yaru theme fullcolor/build/cmd/sc_starshapes.star24.png"
   inkscape:export-xdpi="96"
   inkscape:export-ydpi="96"><metadata
   id="metadata10">
  <rdf:RDF>
    <cc:Work
       rdf:about="">
      <dc:format>image/svg+xml</dc:format>
      <dc:type
         rdf:resource="http://purl.org/dc/dcmitype/StillImage" />
    </cc:Work>
  </rdf:RDF>
</metadata>
<defs
   id="defs8" />
<sodipodi:namedview
   pagecolor="#ffffff"
   bordercolor="#666666"
   borderopacity="1"
   objecttolerance="10"
   gridtolerance="10"
   guidetolerance="10"
   inkscape:pageopacity="0"
   inkscape:pageshadow="2"
   inkscape:window-width="1920"
   inkscape:window-height="1011"
   id="namedview6"
   showgrid="true"
   inkscape:zoom="41.7193"
   inkscape:cx="16.00848"
   inkscape:cy="6.150488"
   inkscape:window-x="0"
   inkscape:window-y="32"
   inkscape:window-maximized="1"
   inkscape:current-layer="svg4">
  <inkscape:grid
     type="xygrid"
     id="grid835" />
</sodipodi:namedview>

/&gt;<path
   style="fill:#000000;stroke:#000000;opacity:0.6;stroke-width:2;stroke-miterlimit:4;stroke-dasharray:none;stroke-linejoin:round"
   id="path825"
   d="M 8,2 7.59375,5.03125 6.4375,2.21875 l 0.40625,3 L 5,2.78125 6.15625,5.59375 3.75,3.75 5.59375,6.15625 2.78125,5 l 2.4375,1.84375 -3,-0.40625 2.8125,1.15625 L 2,8 l 3.03125,0.40625 -2.8125,1.125 3,-0.375 L 2.78125,11 5.59375,9.8125 3.75,12.25 6.15625,10.375 5,13.21875 6.84375,10.75 c 0,0 1.3144531,-1.7430895 1.3144531,-1.75 H 12.4375 L 10.96875,8.40625 14,8 10.96875,7.59375 13.78125,6.4375 10.75,6.84375 13.1875,5 10.375,6.15625 12.25,3.75 9.8125,5.59375 11,2.78125 l -1.84375,2.4375 0.375,-3 -1.125,2.8125 z" />
<path
   d="M 8,2 7.59375,5.03125 6.4375,2.21875 l 0.40625,3 L 5,2.78125 6.15625,5.59375 3.75,3.75 5.59375,6.15625 2.78125,5 l 2.4375,1.84375 -3,-0.40625 2.8125,1.15625 L 2,8 l 3.03125,0.40625 -2.8125,1.125 3,-0.375 L 2.78125,11 5.59375,9.8125 3.75,12.25 6.15625,10.375 5,13.21875 6.84375,10.75 c 0,0 1.3144531,-1.7430895 1.3144531,-1.75 H 12.4375 L 10.96875,8.40625 14,8 10.96875,7.59375 13.78125,6.4375 10.75,6.84375 13.1875,5 10.375,6.15625 12.25,3.75 9.8125,5.59375 11,2.78125 l -1.84375,2.4375 0.375,-3 -1.125,2.8125 z"
   id="path823"
   style="fill:#ffffff" />
<g
   aria-label="24"
   style="font-style:normal;font-variant:normal;font-weight:bold;font-stretch:normal;font-size:10.66666698px;line-height:1.25;font-family:sans-serif;-inkscape-font-specification:'sans-serif, Bold';font-variant-ligatures:normal;font-variant-caps:normal;font-variant-numeric:normal;font-feature-settings:normal;text-align:start;letter-spacing:0px;word-spacing:0px;writing-mode:lr-tb;text-anchor:start;opacity:0.6;fill:#000000;fill-opacity:1;stroke:#000000;stroke-width:2;stroke-linejoin:round;stroke-miterlimit:4;stroke-dasharray:none"
   id="text833">
  <path
     d="M 6.5429687,13.894531 H 9.109375 V 15 H 4.8710937 V 13.894531 L 7,12.015625 Q 7.2851562,11.757813 7.421875,11.511719 7.5585937,11.265625 7.5585937,11 q 0,-0.410156 -0.2773437,-0.660156 -0.2734375,-0.25 -0.7304688,-0.25 -0.3515625,0 -0.7695312,0.152344 Q 5.3632812,10.390625 4.8867187,10.6875 V 9.40625 Q 5.3945312,9.2382813 5.890625,9.1523438 6.3867187,9.0625 6.8632812,9.0625 q 1.046875,0 1.6250001,0.4609375 0.5820312,0.4609375 0.5820312,1.2851565 0,0.476562 -0.2460937,0.890625 -0.2460938,0.410156 -1.0351563,1.101562 z"
     style="font-style:normal;font-variant:normal;font-weight:bold;font-stretch:normal;font-size:8px;font-family:sans-serif;-inkscape-font-specification:'sans-serif, Bold';font-variant-ligatures:normal;font-variant-caps:normal;font-variant-numeric:normal;font-feature-settings:normal;text-align:start;writing-mode:lr-tb;text-anchor:start;fill:#000000;stroke:#000000;stroke-width:2;stroke-linejoin:round;stroke-miterlimit:4;stroke-dasharray:none"
     id="path818" />
  <path
     d="m 12.746094,10.40625 -1.648438,2.441406 h 1.648438 z m -0.25,-1.2382812 h 1.671875 V 12.847656 H 15 V 13.9375 H 14.167969 V 15 h -1.421875 v -1.0625 h -2.585938 v -1.289062 z"
     style="font-style:normal;font-variant:normal;font-weight:bold;font-stretch:normal;font-size:8px;font-family:sans-serif;-inkscape-font-specification:'sans-serif, Bold';font-variant-ligatures:normal;font-variant-caps:normal;font-variant-numeric:normal;font-feature-settings:normal;text-align:start;writing-mode:lr-tb;text-anchor:start;fill:#000000;stroke:#000000;stroke-width:2;stroke-linejoin:round;stroke-miterlimit:4;stroke-dasharray:none"
     id="path820" />
</g>
<g
   aria-label="24"
   style="font-style:normal;font-variant:normal;font-weight:bold;font-stretch:normal;font-size:10.66666698px;line-height:1.25;font-family:sans-serif;-inkscape-font-specification:'sans-serif, Bold';font-variant-ligatures:normal;font-variant-caps:normal;font-variant-numeric:normal;font-feature-settings:normal;text-align:start;letter-spacing:0px;word-spacing:0px;writing-mode:lr-tb;text-anchor:start;fill:#ffffff;fill-opacity:1;stroke:none"
   id="text829">
  <path
     d="M 6.5429687,13.894531 H 9.109375 V 15 H 4.8710937 V 13.894531 L 7,12.015625 Q 7.2851562,11.757813 7.421875,11.511719 7.5585937,11.265625 7.5585937,11 q 0,-0.410156 -0.2773437,-0.660156 -0.2734375,-0.25 -0.7304688,-0.25 -0.3515625,0 -0.7695312,0.152344 Q 5.3632812,10.390625 4.8867187,10.6875 V 9.40625 Q 5.3945312,9.2382813 5.890625,9.1523438 6.3867187,9.0625 6.8632812,9.0625 q 1.046875,0 1.6250001,0.4609375 0.5820312,0.4609375 0.5820312,1.2851565 0,0.476562 -0.2460937,0.890625 -0.2460938,0.410156 -1.0351563,1.101562 z"
     style="font-style:normal;font-variant:normal;font-weight:bold;font-stretch:normal;font-size:8px;font-family:sans-serif;-inkscape-font-specification:'sans-serif, Bold';font-variant-ligatures:normal;font-variant-caps:normal;font-variant-numeric:normal;font-feature-settings:normal;text-align:start;writing-mode:lr-tb;text-anchor:start;fill:#ffffff"
     id="path824" />
  <path
     d="m 12.746094,10.40625 -1.648438,2.441406 h 1.648438 z m -0.25,-1.2382812 h 1.671875 V 12.847656 H 15 V 13.9375 H 14.167969 V 15 h -1.421875 v -1.0625 h -2.585938 v -1.289062 z"
     style="font-style:normal;font-variant:normal;font-weight:bold;font-stretch:normal;font-size:8px;font-family:sans-serif;-inkscape-font-specification:'sans-serif, Bold';font-variant-ligatures:normal;font-variant-caps:normal;font-variant-numeric:normal;font-feature-settings:normal;text-align:start;writing-mode:lr-tb;text-anchor:start;fill:#ffffff"
     id="path826" />
</g>
</svg>

<svg xmlns="http://www.w3.org/2000/svg" viewBox="0 0 16 16">/&gt;<path d="M8 2l-.406 3.031L6.437 2.22l.407 3L5 2.78l1.156 2.813L3.75 3.75l1.844 2.406L2.78 5 5.22 6.844l-3-.407L5.03 7.595 2 8l3.031.406L2.22 9.531l3-.375L2.78 11l2.813-1.188L3.75 12.25l2.406-1.875L5 13.219l1.844-2.469S8.158 9.007 8.158 9h4.28l-1.47-.594L14 8l-3.031-.406 2.812-1.157-3.031.407L13.188 5l-2.813 1.156L12.25 3.75 9.812 5.594 11 2.78 9.156 5.22l.375-3L8.406 5.03z" stroke="#000" opacity=".6" stroke-width="2" stroke-linejoin="round"/><path d="M8 2l-.406 3.031L6.437 2.22l.407 3L5 2.78l1.156 2.813L3.75 3.75l1.844 2.406L2.78 5 5.22 6.844l-3-.407L5.03 7.595 2 8l3.031.406L2.22 9.531l3-.375L2.78 11l2.813-1.188L3.75 12.25l2.406-1.875L5 13.219l1.844-2.469S8.158 9.007 8.158 9h4.28l-1.47-.594L14 8l-3.031-.406 2.812-1.157-3.031.407L13.188 5l-2.813 1.156L12.25 3.75 9.812 5.594 11 2.78 9.156 5.22l.375-3L8.406 5.03z" fill="#fff"/><g aria-label="24" style="line-height:1.25;-inkscape-font-specification:'sans-serif, Bold';font-variant-ligatures:normal;font-variant-caps:normal;font-variant-numeric:normal;font-feature-settings:normal;text-align:start" font-weight="700" font-size="8" font-family="sans-serif" letter-spacing="0" word-spacing="0" opacity=".6" stroke="#000" stroke-width="2" stroke-linejoin="round"><path d="M6.543 13.895h2.566V15H4.871v-1.105L7 12.015q.285-.257.422-.503T7.559 11q0-.41-.278-.66-.273-.25-.73-.25-.352 0-.77.152-.418.149-.894.445v-1.28q.508-.169 1.004-.255.496-.09.972-.09 1.047 0 1.625.461.582.461.582 1.286 0 .476-.246.89-.246.41-1.035 1.102zM12.746 10.406l-1.648 2.442h1.648zm-.25-1.238h1.672v3.68H15v1.09h-.832V15h-1.422v-1.063H10.16v-1.289z" style="-inkscape-font-specification:'sans-serif, Bold';font-variant-ligatures:normal;font-variant-caps:normal;font-variant-numeric:normal;font-feature-settings:normal;text-align:start"/></g><g aria-label="24" style="line-height:1.25;-inkscape-font-specification:'sans-serif, Bold';font-variant-ligatures:normal;font-variant-caps:normal;font-variant-numeric:normal;font-feature-settings:normal;text-align:start" font-weight="700" font-size="8" font-family="sans-serif" letter-spacing="0" word-spacing="0" fill="#fff"><path d="M6.543 13.895h2.566V15H4.871v-1.105L7 12.015q.285-.257.422-.503T7.559 11q0-.41-.278-.66-.273-.25-.73-.25-.352 0-.77.152-.418.149-.894.445v-1.28q.508-.169 1.004-.255.496-.09.972-.09 1.047 0 1.625.461.582.461.582 1.286 0 .476-.246.89-.246.41-1.035 1.102zM12.746 10.406l-1.648 2.442h1.648zm-.25-1.238h1.672v3.68H15v1.09h-.832V15h-1.422v-1.063H10.16v-1.289z" style="-inkscape-font-specification:'sans-serif, Bold';font-variant-ligatures:normal;font-variant-caps:normal;font-variant-numeric:normal;font-feature-settings:normal;text-align:start"/></g></svg>
